public/library/ton-connect-icon-dark.svg

<svg width="237" height="237" viewBox="0 0 237 237" fill="none" xmlns="http://www.w3.org/2000/svg">
<path d="M118.204 0.000292436C183.486 0.000292436 236.408 52.9224 236.408 118.205C236.408 183.487 183.486 236.408 118.204 236.408C52.9216 236.408 0.000184007 183.487 0 118.205C0 52.9225 52.9215 0.000452012 118.204 0.000292436ZM74.1011 62.1965C57.6799 62.1965 47.268 79.912 55.5308 94.2347L109.964 188.582C113.619 194.922 122.781 194.922 126.436 188.582L180.88 94.2347C189.132 79.9343 178.72 62.1966 162.31 62.1965H74.1011ZM162.288 78.8412C166.031 78.8412 168.234 82.8121 166.45 85.9075L137.856 137.091L137.851 137.099L126.506 159.046V78.8412H162.288ZM109.872 78.8517V159.024L98.5376 137.088L98.5334 137.08L69.9294 85.9215L69.8468 85.7725C68.2134 82.6997 70.405 78.8517 74.0899 78.8517H109.872Z" fill="white"/>
</svg>

<svg xmlns="http://www.w3.org/2000/svg" width="237" height="237" fill="none" viewBox="0 0 237 237"><path fill="#fff" d="M118.204 0c65.282 0 118.204 52.922 118.204 118.205 0 65.282-52.922 118.203-118.204 118.203S0 183.487 0 118.205 52.922 0 118.204 0M74.101 62.197c-16.421 0-26.833 17.715-18.57 32.038l54.433 94.347c3.655 6.34 12.817 6.34 16.472 0l54.444-94.347c8.252-14.3-2.16-32.038-18.57-32.038zm88.187 16.644c3.743 0 5.946 3.971 4.162 7.067l-28.594 51.183-.005.008-11.345 21.947V78.841zm-52.416.01v80.173l-11.334-21.936-.005-.008L69.93 85.921l-.082-.149c-1.634-3.072.558-6.92 4.243-6.92z"/></svg>
